F1 Grump/assets/track outlines/Bahrain International - White_1.svg

<svg xmlns="http://www.w3.org/2000/svg" viewBox="0 0 3568.27 2826.98"><defs><style>.cls-1{fill:#fff;}</style></defs><title>Bahrain International - White_1</title><g id="Layer_2" data-name="Layer 2"><g id="Layer_1-2" data-name="Layer 1"><path class="cls-1" d="M0,2602.34H80.32q33,0,49.44,13.6t16.48,42.72q0,20.81-7.2,32.48t-21.28,18.4Q153,2721.71,153,2761.7q0,33.28-17.6,47.68t-50.88,14.4H0Zm79.36,21.76H24.64v76.48h57q20.48,0,29.92-9.76t9.44-29.44q0-19.68-10.08-28.48T79.36,2624.1ZM81.92,2722H24.64v80H83.52q21.75,0,33.12-9.12T128,2760.74q0-12.16-4.64-20.48A26.92,26.92,0,0,0,111,2728.42,69.62,69.62,0,0,0,81.92,2722Z"/><path class="cls-1" d="M174.4,2823.78l60.8-221.44H289l60.8,221.44H325.44l-16-57H214.72l-16,57Zm79.36-200.32-33.6,121.28H304l-33.6-121.28Z"/><path class="cls-1" d="M521.92,2823.78V2723.62H409.28v100.16H384.64V2602.34h24.64v99.2H521.92v-99.2h24.32v221.44Z"/><path class="cls-1" d="M625.27,2739v84.8H600.63V2602.34h81.92q35.21,0,53,16.32t17.76,50.88q0,51.2-40.64,64.32l42.56,89.92H728L688,2739Zm57.6-21.76q45.12,0,45.13-46.56t-45.45-46.56H625.27v93.12Z"/><path class="cls-1" d="M776,2823.78l60.8-221.44h53.76l60.8,221.44H927l-16-57H816.32l-16,57Zm79.36-200.32-33.6,121.28H905.6L872,2623.46Z"/><path class="cls-1" d="M986.24,2823.78V2602.34h24.64v221.44Z"/><path class="cls-1" d="M1065,2823.78V2602.34H1111l84.8,199.68h6.72V2602.34h24.32v221.44h-45.12l-86.08-199.68h-6.08v199.68Z"/><path class="cls-1" d="M1351.67,2823.78V2602.34h24.63v221.44Z"/><path class="cls-1" d="M1430.38,2823.78V2602.34h46.08l84.8,199.68H1568V2602.34h24.32v221.44h-45.12L1461.1,2624.1H1455v199.68Z"/><path class="cls-1" d="M1623.66,2624.42v-22.08h160v22.08h-67.52v199.36h-24.32V2624.42Z"/><path class="cls-1" d="M1815,2823.78V2602.34h134.72v21.76H1839.65v76.48h90.88V2722h-90.88v80h110.08v21.76Z"/><path class="cls-1" d="M2016.61,2739v84.8H1992V2602.34h81.92q35.21,0,53,16.32t17.76,50.88q0,51.2-40.64,64.32l42.56,89.92h-27.2l-40-84.8Zm57.6-21.76q45.12,0,45.12-46.56t-45.44-46.56h-57.28v93.12Z"/><path class="cls-1" d="M2189.09,2823.78V2602.34h46.08L2320,2802h6.72V2602.34H2351v221.44h-45.12l-86.08-199.68h-6.08v199.68Z"/><path class="cls-1" d="M2385.89,2823.78l60.8-221.44h53.76l60.8,221.44h-24.32l-16-57h-94.72l-16,57Zm79.36-200.32-33.6,121.28h83.84l-33.6-121.28Z"/><path class="cls-1" d="M2558.05,2624.42v-22.08h160v22.08h-67.52v199.36h-24.32V2624.42Z"/><path class="cls-1" d="M2749.4,2823.78V2602.34H2774v221.44Z"/><path class="cls-1" d="M2994.2,2714.66q0,59.21-18.88,85.76T2906.68,2827q-49.77,0-68.64-27.2t-18.88-85.6q0-58.39,19.2-86.72t68.16-28.32q49,0,68.32,28.16T2994.2,2714.66Zm-149.76-.64q0,48.64,12.8,69.92t49.44,21.28q36.63,0,49.28-20.8t12.64-69.76q0-49-13.12-71.36t-49.12-22.4q-36,0-49,22.24T2844.44,2714Z"/><path class="cls-1" d="M3039.32,2823.78V2602.34h46.08L3170.2,2802h6.72V2602.34h24.32v221.44h-45.12L3070,2624.1H3064v199.68Z"/><path class="cls-1" d="M3236.11,2823.78l60.81-221.44h53.75l60.8,221.44h-24.31l-16-57h-94.73l-16,57Zm79.36-200.32-33.6,121.28h83.84l-33.6-121.28Z"/><path class="cls-1" d="M3568.27,2823.78H3446.35V2602.34H3471V2801.7h97.28Z"/><path class="cls-1" d="M3043.85,2281.82c-297.78-.22-829.7-3.67-1379.88-7.25-689.83-4.47-1392.91-9-1576.29-6.45-47.19.64-64.74-24.6-71.45-39.69-9.53-21.51-7.19-49.9,5.36-64.65,30.91-36.3,56.75-64.51,77.54-87.2,59.29-64.69,71.82-79.82,71.46-120.76-.2-22.21-15.88-57.56-32.5-95-28.15-63.44-60-135.27-50.83-209.43C126.68,1334.08,283.81,341.94,329.38,69.58c1.85-11.09,8.31-27.26,28.46-41.38,30.39-21.28,86.89-33.44,120.86-26,45.92,10,106.39,79.91,201.45,193.35l27.1,32.3c59.63,70.69,156.47,162.79,185,188.35,56.07,50.22,113.54,82.16,186.44,103.55C1113,529.8,1185,562.45,1212.27,614c30.86,58.44,24.33,139.69,18,218.29-4.25,53.05-8.68,107.91,2.31,135.06,18.93,46.87,208.69,179.85,322.45,259.57,129.85,91,176.62,125,190.52,149,15.77,27.25,15.13,58.84-1.78,86.65-26.82,44.06-86.21,69-126.27,67.2-94.56-4.75-310.16-33.78-499.58-59.29-113.88-15.33-221.2-29.77-278.48-35.62-41.22-4.19-101.19-3-135.6,9.62-63.13,23.1-103.91,85.59-143.57,156,64.58,16.39,232.18,35.28,337.6,36.29,26.16.25,58.15.63,93.55,1,109.19,1.27,245.43,2.86,347.47,2.47,72.19-.28,172.52.21,289,.77,313.23,1.51,705.9,3.39,863-7.67,25.64-1.81,59.33-35.72,66.7-67.18,11.24-47.92,4.58-139.28-23.21-198.82-24.85-53.24-86.05-114-163.6-162.38-37.13-23.18-95.28-43-151.45-62.06-62.93-21.39-127.89-43.48-171.57-72.93-65.49-44.16-119.43-120.27-144.37-203.63-21.32-71.26-30.12-177.73,9-263.1,12.68-27.61,26.39-59,40.65-91.59,44.45-101.65,94.84-217,138.89-276.16,31.31-42.1,124.28-111.39,190.19-93.74,67.1,18,120.22,66,162.39,147,27.63,53,68.17,118,111.15,186.8,14.35,23,28.88,46.24,43.2,69.5,77.46,125.89,765.82,1245.18,853,1410,10.48,19.81,23.41,40.58,35.91,60.68,32.12,51.56,53.33,85.64,45.45,116.17a47.49,47.49,0,0,1-22.66,29.67c-114.23,65.07-214.15,118.88-282.76,119.67-41.65.46-104.37.64-183.93.59M281.59,2195c301.72-.05,846.5,3.08,1383.28,6.15,666.38,3.82,1365.17,7.83,1562.35,5.48,50.27-.61,151.84-56.32,227.19-99.12-7.39-14.71-20.91-36.46-30.77-52.31-13.16-21.17-26.77-43-38.45-65.15-86-162.71-772.21-1279.78-849.45-1405.43-14.2-23.11-28.65-46.23-42.89-69.09-43.66-70-84.88-136-113.75-191.56-32.88-63.17-70.28-98.52-117.71-111.26-19.68-5.32-85.19,30.5-111.36,65.66-38.9,52.27-87.53,163.42-130.41,261.43-14.48,33.11-28.38,64.87-41.24,92.89-30.6,66.66-22,155.42-5.25,211.19,20,67,64.48,130.15,116,164.82,35.81,24.11,96.21,44.59,154.7,64.44,60.09,20.37,122.28,41.47,166.51,69,42.7,26.62,146.91,98.79,191,193.08,35.88,76.75,42.52,185.86,28.18,247-13.3,56.7-70.47,120.37-134.31,124.82-159.89,11.14-554.11,9-868.57,7.2-116.28-.65-216.48-1.21-288.36-1-102.6.31-239.16-1.39-348.61-2.75-35.33-.44-67.28-.84-93.4-1.11-59.8-.62-153.54-7.85-233.2-18-162-20.63-172.64-39.62-181.15-54.87a41.61,41.61,0,0,1,0-40.61c49.9-90.4,101.53-183.91,198.95-219.63,48.2-17.68,120-18.43,166.86-13.69,58.4,5.9,161.3,19.67,280.75,35.65,188,25.18,402.11,53.84,493.68,58.37,17.2,1.11,49.41-14.38,60-31.75,3.53-5.81,2.58-8.09.7-11.31-11.59-15.52-99.26-77-169.59-126.41-187.81-131.82-322.22-229.55-347.08-291.11-17.38-43.05-12.49-103.82-7.31-168.16,5.22-64.95,11.15-138.55-9.9-178.45-13.27-25.14-62.6-51.4-91.6-59.93-83.2-24.5-148.83-61-212.86-118.46C822.51,451.43,719.62,355,652.89,275.78l-27.22-32.46c-54.62-65.27-137-163.7-163.77-170.66-15.46-3.37-51.75,5.46-64.2,13.54C350.79,367.45,195.94,1345.39,156.93,1659.49c-6.68,53.91,20.89,116,45.24,170.74,20.63,46.47,38.47,86.62,38.83,124.08.62,71.64-30,105-90.91,171.48-17.41,19-38.45,41.91-62.92,70.15h.13c41.07-.61,107.82-.9,194.29-.91"/></g></g></svg>

<svg width="3568" height="2306" viewBox="0 0 3568 2306" fill="none" xmlns="http://www.w3.org/2000/svg">
<path d="M3043.85 2281.82C2746.07 2281.6 2214.15 2278.15 1663.97 2274.57C974.139 2270.1 271.06 2265.57 87.6796 2268.12C40.4896 2268.76 22.9396 2243.52 16.2296 2228.43C6.69956 2206.92 9.03956 2178.53 21.5896 2163.78C52.4996 2127.48 78.3396 2099.27 99.1296 2076.58C158.42 2011.89 170.95 1996.76 170.59 1955.82C170.39 1933.61 154.71 1898.26 138.09 1860.82C109.94 1797.38 78.0896 1725.55 87.2596 1651.39C126.68 1334.08 283.81 341.94 329.38 69.5798C331.23 58.4898 337.69 42.3198 357.84 28.1998C388.23 6.91976 444.73 -5.24024 478.7 2.19976C524.62 12.1998 585.09 82.1098 680.15 195.55L707.25 227.85C766.88 298.54 863.72 390.64 892.25 416.2C948.32 466.42 1005.79 498.36 1078.69 519.75C1113 529.8 1185 562.45 1212.27 614C1243.13 672.44 1236.6 753.69 1230.27 832.29C1226.02 885.34 1221.59 940.2 1232.58 967.35C1251.51 1014.22 1441.27 1147.2 1555.03 1226.92C1684.88 1317.92 1731.65 1351.92 1745.55 1375.92C1761.32 1403.17 1760.68 1434.76 1743.77 1462.57C1716.95 1506.63 1657.56 1531.57 1617.5 1529.77C1522.94 1525.02 1307.34 1495.99 1117.92 1470.48C1004.04 1455.15 896.72 1440.71 839.44 1434.86C798.22 1430.67 738.25 1431.86 703.84 1444.48C640.71 1467.58 599.93 1530.07 560.27 1600.48C624.85 1616.87 792.45 1635.76 897.87 1636.77C924.03 1637.02 956.02 1637.4 991.42 1637.77C1100.61 1639.04 1236.85 1640.63 1338.89 1640.24C1411.08 1639.96 1511.41 1640.45 1627.89 1641.01C1941.12 1642.52 2333.79 1644.4 2490.89 1633.34C2516.53 1631.53 2550.22 1597.62 2557.59 1566.16C2568.83 1518.24 2562.17 1426.88 2534.38 1367.34C2509.53 1314.1 2448.33 1253.34 2370.78 1204.96C2333.65 1181.78 2275.5 1161.96 2219.33 1142.9C2156.4 1121.51 2091.44 1099.42 2047.76 1069.97C1982.27 1025.81 1928.33 949.7 1903.39 866.34C1882.07 795.08 1873.27 688.61 1912.39 603.24C1925.07 575.63 1938.78 544.24 1953.04 511.65C1997.49 410 2047.88 294.65 2091.93 235.49C2123.24 193.39 2216.21 124.1 2282.12 141.75C2349.22 159.75 2402.34 207.75 2444.51 288.75C2472.14 341.75 2512.68 406.75 2555.66 475.55C2570.01 498.55 2584.54 521.79 2598.86 545.05C2676.32 670.94 3364.68 1790.23 3451.86 1955.05C3462.34 1974.86 3475.27 1995.63 3487.77 2015.73C3519.89 2067.29 3541.1 2101.37 3533.22 2131.9C3531.64 2138.12 3528.82 2143.96 3524.93 2149.05C3521.03 2154.15 3516.15 2158.41 3510.56 2161.57C3396.33 2226.64 3296.41 2280.45 3227.8 2281.24C3186.15 2281.7 3123.43 2281.88 3043.87 2281.83M281.59 2195C583.31 2194.95 1128.09 2198.08 1664.87 2201.15C2331.25 2204.97 3030.04 2208.98 3227.22 2206.63C3277.49 2206.02 3379.06 2150.31 3454.41 2107.51C3447.02 2092.8 3433.5 2071.05 3423.64 2055.2C3410.48 2034.03 3396.87 2012.2 3385.19 1990.05C3299.19 1827.34 2612.98 710.27 2535.74 584.62C2521.54 561.51 2507.09 538.39 2492.85 515.53C2449.19 445.53 2407.97 379.53 2379.1 323.97C2346.22 260.8 2308.82 225.45 2261.39 212.71C2241.71 207.39 2176.2 243.21 2150.03 278.37C2111.13 330.64 2062.5 441.79 2019.62 539.8C2005.14 572.91 1991.24 604.67 1978.38 632.69C1947.78 699.35 1956.38 788.11 1973.13 843.88C1993.13 910.88 2037.61 974.03 2089.13 1008.7C2124.94 1032.81 2185.34 1053.29 2243.83 1073.14C2303.92 1093.51 2366.11 1114.61 2410.34 1142.14C2453.04 1168.76 2557.25 1240.93 2601.34 1335.22C2637.22 1411.97 2643.86 1521.08 2629.52 1582.22C2616.22 1638.92 2559.05 1702.59 2495.21 1707.04C2335.32 1718.18 1941.1 1716.04 1626.64 1714.24C1510.36 1713.59 1410.16 1713.03 1338.28 1713.24C1235.68 1713.55 1099.12 1711.85 989.67 1710.49C954.34 1710.05 922.39 1709.65 896.27 1709.38C836.47 1708.76 742.73 1701.53 663.07 1691.38C501.07 1670.75 490.43 1651.76 481.92 1636.51C478.45 1630.3 476.629 1623.31 476.629 1616.2C476.629 1609.1 478.45 1602.11 481.92 1595.9C531.82 1505.5 583.45 1411.99 680.87 1376.27C729.07 1358.59 800.87 1357.84 847.73 1362.58C906.13 1368.48 1009.03 1382.25 1128.48 1398.23C1316.48 1423.41 1530.59 1452.07 1622.16 1456.6C1639.36 1457.71 1671.57 1442.22 1682.16 1424.85C1685.69 1419.04 1684.74 1416.76 1682.86 1413.54C1671.27 1398.02 1583.6 1336.54 1513.27 1287.13C1325.46 1155.31 1191.05 1057.58 1166.19 996.02C1148.81 952.97 1153.7 892.2 1158.88 827.86C1164.1 762.91 1170.03 689.31 1148.98 649.41C1135.71 624.27 1086.38 598.01 1057.38 589.48C974.18 564.98 908.55 528.48 844.52 471.02C822.51 451.43 719.62 355 652.89 275.78L625.67 243.32C571.05 178.05 488.67 79.6198 461.9 72.6598C446.44 69.2898 410.15 78.1198 397.7 86.1998C350.79 367.45 195.94 1345.39 156.93 1659.49C150.25 1713.4 177.82 1775.49 202.17 1830.23C222.8 1876.7 240.64 1916.85 241 1954.31C241.62 2025.95 211 2059.31 150.09 2125.79C132.68 2144.79 111.64 2167.7 87.1696 2195.94H87.2996C128.37 2195.33 195.12 2195.04 281.59 2195.03" fill="white"/>
</svg>
